src/assets/svg/files-empty.svg

<!-- Generated by IcoMoon.io -->
<svg version="1.1" xmlns="http://www.w3.org/2000/svg" width="32" height="32" viewBox="0 0 32 32">
<title>files-empty</title>
<path d="M28.681 11.159c-0.694-0.947-1.662-2.053-2.724-3.116s-2.169-2.030-3.116-2.724c-1.612-1.182-2.393-1.319-2.841-1.319h-11.5c-1.379 0-2.5 1.122-2.5 2.5v23c0 1.378 1.121 2.5 2.5 2.5h19c1.378 0 2.5-1.122 2.5-2.5v-15.5c0-0.448-0.137-1.23-1.319-2.841zM24.543 9.457c0.959 0.959 1.712 1.825 2.268 2.543h-4.811v-4.811c0.718 0.556 1.584 1.309 2.543 2.268v0zM28 29.5c0 0.271-0.229 0.5-0.5 0.5h-19c-0.271 0-0.5-0.229-0.5-0.5v-23c0-0.271 0.229-0.5 0.5-0.5 0 0 11.499-0 11.5 0v7c0 0.552 0.448 1 1 1h7v15.5z"></path>
<path d="M18.841 1.319c-1.612-1.182-2.393-1.319-2.841-1.319h-11.5c-1.378 0-2.5 1.121-2.5 2.5v23c0 1.207 0.86 2.217 2 2.45v-25.45c0-0.271 0.229-0.5 0.5-0.5h15.215c-0.301-0.248-0.595-0.477-0.873-0.681z"></path>
</svg>

<svg xmlns="http://www.w3.org/2000/svg" viewBox="0 0 32 32">
  <path d="M28.68 11.16c-.7-.95-1.66-2.05-2.72-3.12s-2.17-2.03-3.12-2.72C21.23 4.14 20.44 4 20 4H8.5A2.5 2.5 0 0 0 6 6.5v23A2.5 2.5 0 0 0 8.5 32h19a2.5 2.5 0 0 0 2.5-2.5V14c0-.45-.14-1.23-1.32-2.84zm-4.14-1.7c.96.96 1.72 1.82 2.27 2.54H22V7.19c.72.55 1.58 1.3 2.54 2.27zM28 29.5a.5.5 0 0 1-.5.5h-19a.5.5 0 0 1-.5-.5v-23c0-.27.23-.5.5-.5H20v7a1 1 0 0 0 1 1h7v15.5z"/>
  <path d="M18.84 1.32C17.23.14 16.44 0 16 0H4.5A2.5 2.5 0 0 0 2 2.5v23c0 1.2.86 2.22 2 2.45V2.5c0-.27.23-.5.5-.5h15.21c-.3-.25-.59-.48-.87-.68z"/>
</svg>
